src/lib/packages/icons/src/assets/line/sign-direction-right.svg

<svg width="24" height="24" viewBox="0 0 24 24" fill="none" xmlns="http://www.w3.org/2000/svg">
<path d="M20.237 7.76294L17.383 4.90894C16.958 4.48394 16.393 4.25 15.792 4.25H11.749V3C11.749 2.586 11.413 2.25 10.999 2.25C10.585 2.25 10.249 2.586 10.249 3V4.25H5.845C4.195 4.25 3.24899 5.19595 3.24899 6.84595V11.1541C3.24899 12.8041 4.195 13.75 5.845 13.75H10.249V20.25H8C7.586 20.25 7.25 20.586 7.25 21C7.25 21.414 7.586 21.75 8 21.75H14C14.414 21.75 14.75 21.414 14.75 21C14.75 20.586 14.414 20.25 14 20.25H11.75V13.75H15.793C16.394 13.75 16.959 13.5161 17.384 13.0911L20.238 10.2371C20.919 9.55506 20.919 8.44494 20.237 7.76294ZM19.177 9.177L16.323 12.031C16.181 12.173 15.993 12.251 15.793 12.251H5.84601C5.02601 12.251 4.75 11.975 4.75 11.155V6.84692C4.75 6.02692 5.02601 5.75098 5.84601 5.75098H15.793C15.993 5.75098 16.182 5.82895 16.323 5.97095L19.177 8.82495C19.274 8.92095 19.274 9.079 19.177 9.177Z" fill="currentColor"/>
</svg>

<svg xmlns="http://www.w3.org/2000/svg" width="24" height="24" fill="none"><path fill="currentColor" d="m20.237 7.763-2.854-2.854a2.235 2.235 0 0 0-1.591-.659h-4.043V3a.75.75 0 0 0-1.5 0v1.25H5.845c-1.65 0-2.596.946-2.596 2.596v4.308c0 1.65.946 2.596 2.596 2.596h4.404v6.5H8a.75.75 0 0 0 0 1.5h6a.75.75 0 0 0 0-1.5h-2.25v-6.5h4.043c.601 0 1.166-.234 1.591-.659l2.854-2.854a1.753 1.753 0 0 0-.001-2.474Zm-1.06 1.414-2.854 2.854a.744.744 0 0 1-.53.22H5.846c-.82 0-1.096-.276-1.096-1.096V6.847c0-.82.276-1.096 1.096-1.096h9.947c.2 0 .389.078.53.22l2.854 2.854a.25.25 0 0 1 0 .352Z"/></svg>
